images/menu-phone.svg

<svg width="58" height="58" viewBox="0 0 58 58" fill="none" xmlns="http://www.w3.org/2000/svg">
<path d="M56.5 42.53V50.78C56.5031 51.5459 56.3462 52.304 56.0394 53.0057C55.7326 53.7074 55.2826 54.3374 54.7182 54.8551C54.1539 55.3729 53.4876 55.7671 52.7621 56.0124C52.0365 56.2578 51.2678 56.3489 50.505 56.28C42.0428 55.3605 33.9142 52.4689 26.7725 47.8375C20.128 43.6153 14.4947 37.982 10.2725 31.3375C5.62494 24.1633 2.73267 15.9952 1.83 7.49499C1.76128 6.73453 1.85166 5.96808 2.09538 5.24446C2.3391 4.52084 2.73082 3.85589 3.24561 3.29195C3.76039 2.72801 4.38696 2.27744 5.08542 1.96893C5.78389 1.66041 6.53894 1.50071 7.3025 1.49999H15.5525C16.8871 1.48686 18.1809 1.95946 19.1928 2.82971C20.2048 3.69996 20.8657 4.90847 21.0525 6.22999C21.4007 8.87017 22.0465 11.4625 22.9775 13.9575C23.3475 14.9418 23.4276 16.0115 23.2082 17.0399C22.9889 18.0683 22.4794 19.0123 21.74 19.76L18.2475 23.2525C22.1623 30.1372 27.8627 35.8377 34.7475 39.7525L38.24 36.26C38.9877 35.5206 39.9317 35.0111 40.9601 34.7917C41.9885 34.5724 43.0582 34.6525 44.0425 35.0225C46.5375 35.9535 49.1298 36.5993 51.77 36.9475C53.1059 37.136 54.3259 37.8088 55.198 38.8381C56.0701 39.8674 56.5335 41.1813 56.5 42.53Z" stroke="black" stroke-width="2" stroke-linecap="round" stroke-linejoin="round"/>
</svg>

<svg xmlns="http://www.w3.org/2000/svg" width="58" height="58" fill="none"><path stroke="#000" stroke-linecap="round" stroke-linejoin="round" stroke-width="2" d="M56.5 42.53v8.25a5.5 5.5 0 0 1-5.995 5.5 54.422 54.422 0 0 1-23.733-8.443 53.625 53.625 0 0 1-16.5-16.5A54.423 54.423 0 0 1 1.83 7.495 5.5 5.5 0 0 1 7.303 1.5h8.25a5.5 5.5 0 0 1 5.5 4.73 35.31 35.31 0 0 0 1.924 7.727 5.5 5.5 0 0 1-1.237 5.803l-3.492 3.492a44 44 0 0 0 16.5 16.5l3.492-3.492a5.5 5.5 0 0 1 5.802-1.237 35.31 35.31 0 0 0 7.728 1.924 5.5 5.5 0 0 1 4.73 5.583Z"/></svg>
